svg/white/ilk.svg

<?xml version="1.0" encoding="UTF-8"?>
<svg width="32px" height="32px" viewBox="0 0 32 32" version="1.1" xmlns="http://www.w3.org/2000/svg" xmlns:xlink="http://www.w3.org/1999/xlink">
    <!-- Generator: Sketch 53 (72520) - https://sketchapp.com -->
    <title>svg/white/ilk</title>
    <desc>Created with Sketch.</desc>
    <g id="white/ilk" stroke="none" stroke-width="1" fill="none" fill-rule="evenodd">
        <path d="M16,32 C7.163444,32 0,24.836556 0,16 C0,7.163444 7.163444,0 16,0 C24.836556,0 32,7.163444 32,16 C32,24.836556 24.836556,32 16,32 Z M15.79,4 C9.2785628,4 4,9.2785628 4,15.79 C4,22.3014372 9.2785628,27.58 15.79,27.58 C22.3014372,27.58 27.58,22.3014372 27.58,15.79 C27.56899,9.28312873 22.2968713,4.01100996 15.79,4 Z M15.79,26 C10.1579979,25.9999973 5.59184416,21.4353319 5.59000545,15.8033301 C5.58816673,10.1713283 10.151339,5.60368232 15.7833399,5.60000218 C21.4153408,5.59632203 25.9844784,10.1580006 25.99,15.79 C25.9844875,21.4210195 21.4210195,25.9844875 15.79,25.99 L15.79,26 Z M10.58,14.74 L10.58,11.04 L13.18,11.04 L13.18,14.74 L15.06,14.74 L15.06,10.58 C15.1201788,10.258629 15.0194524,9.92813543 14.7902605,9.69495759 C14.5610686,9.46177975 14.2323607,9.35537056 13.91,9.41 L9.79,9.41 C9.05,9.41 8.68,9.8 8.68,10.58 L8.68,14.74 L10.58,14.74 Z M13.18,15.96 L13.19,15.94 L8.69,15.94 L8.69,20.94 C8.63042922,21.2530408 8.72361779,21.5757305 8.94090346,21.8088188 C9.15818914,22.0419071 9.47355381,22.1574835 9.79,22.12 L13.93,22.12 C14.2503062,22.1736547 14.5767198,22.0684188 14.8053699,21.8377805 C15.03402,21.6071421 15.1364258,21.2798297 15.08,20.96 L15.08,15.96 L13.18,15.96 Z M20.98,16.03 L18.4,16.03 L18.4,11.13 L20.9,11.13 L20.9,13.67 L22.9,13.67 L22.9,10.67 C22.9657041,10.3382644 22.8592923,9.9957956 22.6171555,9.75971229 C22.3750188,9.52362897 22.0299662,9.42591991 21.7,9.5 L17.6,9.5 C17.2745457,9.43777558 16.9394016,9.54080287 16.7051022,9.77510223 C16.4708029,10.0094016 16.3677756,10.3445457 16.43,10.67 L16.43,16.03 L16.43,21.03 C16.3744844,21.3478173 16.4757145,21.6728952 16.7018558,21.9030038 C16.927997,22.1331125 17.2512653,22.2399804 17.57,22.19 L21.74,22.19 C22.0618624,22.2473858 22.3914517,22.143812 22.6226318,21.9126318 C22.853812,21.6814517 22.9573858,21.3518624 22.9,21.03 L22.9,16.03 L20.98,16.03 Z" id="Combined-Shape" fill="#FFFFFF" fill-rule="nonzero"></path>
    </g>
</svg>

<svg width="32" height="32" viewBox="0 0 32 32" xmlns="http://www.w3.org/2000/svg"><path d="M16 32C7.163 32 0 24.837 0 16S7.163 0 16 0s16 7.163 16 16-7.163 16-16 16zm-.21-28C9.279 4 4 9.279 4 15.79c0 6.511 5.279 11.79 11.79 11.79 6.511 0 11.79-5.279 11.79-11.79C27.569 9.283 22.297 4.011 15.79 4zm0 22c-5.632 0-10.198-4.565-10.2-10.197-.002-5.632 4.561-10.2 10.193-10.203 5.632-.004 10.201 4.558 10.207 10.19-.006 5.631-4.569 10.194-10.2 10.2V26zm-5.21-11.26v-3.7h2.6v3.7h1.88v-4.16a1 1 0 0 0-1.15-1.17H9.79c-.74 0-1.11.39-1.11 1.17v4.16h1.9zm2.6 1.22l.01-.02h-4.5v5a1 1 0 0 0 1.1 1.18h4.14a1 1 0 0 0 1.15-1.16v-5h-1.9zm7.8.07H18.4v-4.9h2.5v2.54h2v-3a1 1 0 0 0-1.2-1.17h-4.1a1 1 0 0 0-1.17 1.17v10.36a1 1 0 0 0 1.14 1.16h4.17a1 1 0 0 0 1.16-1.16v-5h-1.92z" fill="#FFF"/></svg>
